packages/core/src/svgs/tokens/branded/OLT.svg

<svg width="24" height="24" viewBox="0 0 24 24" fill="none" xmlns="http://www.w3.org/2000/svg">
<path d="M7.31228 2L11.3716 4.34373V9.0312L7.31228 11.3749L3.25293 9.0312V4.34373L7.31228 2Z" fill="#008D9F"/>
<path d="M7.31228 12.625L11.3716 14.9686V19.6561L7.31228 22L3.25293 19.6561V14.9686L7.31228 12.625ZM16.6872 2L20.7466 4.34373V9.03122L16.6872 11.3749L12.6279 9.03122V4.34373L16.6872 2Z" fill="#00F1D0"/>
<path d="M16.6868 12.625L20.7462 14.9687V19.6562L16.6868 22L12.6274 19.6562V14.9687L16.6868 12.625Z" fill="#008D9F"/>
</svg>

<svg xmlns="http://www.w3.org/2000/svg" width="24" height="24" fill="none" viewBox="0 0 24 24">
    <path fill="#008D9F" d="m7.312 2 4.06 2.344V9.03l-4.06 2.344-4.06-2.344V4.344z"/>
    <path fill="#00F1D0" d="m7.312 12.625 4.06 2.344v4.687L7.312 22l-4.06-2.344V14.97zM16.687 2l4.06 2.344V9.03l-4.06 2.344-4.06-2.344V4.344z"/>
    <path fill="#008D9F" d="m16.687 12.625 4.06 2.344v4.687L16.686 22l-4.06-2.344V14.97z"/>
</svg>
